assets/img/braze_icons/type-strikethrough-01.svg

<svg fill="none" height="24" viewBox="0 0 24 24" width="24" xmlns="http://www.w3.org/2000/svg"><path clip-rule="evenodd" d="m2.29289 2.29289c.39053-.39052 1.02369-.39052 1.41422 0l17.99999 18.00001c.3905.3905.3905 1.0237 0 1.4142s-1.0237.3905-1.4142 0l-7.2929-7.2929v4.5858h2c.5523 0 1 .4477 1 1s-.4477 1-1 1h-6c-.55228 0-1-.4477-1-1s.44772-1 1-1h2v-6.5858l-6-5.99999v.58579c0 .55228-.44772 1-1 1s-1-.44772-1-1v-1c0-.46272.10519-.90155.29256-1.29323l-.99967-.99966c-.39052-.39053-.39052-1.02369 0-1.41422zm15.73331 2.72382c-.2369-.01617-.5466-.01671-1.0262-.01671h-4v1.5c0 .55228-.4477 1-1 1s-1-.44772-1-1v-1.5h-1.5c-.55228 0-1-.44772-1-1s.44772-1 1-1h7.532c.4386-.00001.8171-.00002 1.1304.02135.3298.0225.6597.07201.9857.20701.735.30448 1.3191.8885 1.6235 1.62359.135.32593.1845.65584.2071.98567.0213.31325.0213.69174.0213 1.13039v.03199c0 .55228-.4477 1-1 1s-1-.44772-1-1c0-.47962-.0005-.78926-.0167-1.02624-.0156-.228-.0422-.31483-.0594-.35644-.1015-.24503-.2962-.43971-.5412-.5412-.0416-.01724-.1285-.04385-.3565-.05941z" fill="#801ed7" fill-rule="evenodd"/></svg>

<svg width="24" height="24" viewBox="0 0 24 24" fill="none" xmlns="http://www.w3.org/2000/svg">
<path fill-rule="evenodd" clip-rule="evenodd" d="M2.29289 2.29289C2.68342 1.90237 3.31658 1.90237 3.70711 2.29289L21.7071 20.2929C22.0976 20.6834 22.0976 21.3166 21.7071 21.7071C21.3166 22.0976 20.6834 22.0976 20.2929 21.7071L13 14.4142V19H15C15.5523 19 16 19.4477 16 20C16 20.5523 15.5523 21 15 21H9C8.44772 21 8 20.5523 8 20C8 19.4477 8.44772 19 9 19H11V12.4142L5 6.41421V7C5 7.55228 4.55228 8 4 8C3.44772 8 3 7.55228 3 7V6C3 5.53728 3.10519 5.09845 3.29256 4.70677L2.29289 3.70711C1.90237 3.31658 1.90237 2.68342 2.29289 2.29289ZM18.0262 5.01671C17.7893 5.00054 17.4796 5 17 5H13V6.5C13 7.05228 12.5523 7.5 12 7.5C11.4477 7.5 11 7.05228 11 6.5V5H9.5C8.94772 5 8.5 4.55228 8.5 4C8.5 3.44772 8.94772 3 9.5 3H17.032C17.4706 2.99999 17.8491 2.99998 18.1624 3.02135C18.4922 3.04385 18.8221 3.09336 19.1481 3.22836C19.8831 3.53284 20.4672 4.11686 20.7716 4.85195C20.9066 5.17788 20.9561 5.50779 20.9787 5.83762C21 6.15087 21 6.52936 21 6.96801V7C21 7.55228 20.5523 8 20 8C19.4477 8 19 7.55228 19 7C19 6.52038 18.9995 6.21074 18.9833 5.97376C18.9677 5.74576 18.9411 5.65893 18.9239 5.61732C18.8224 5.37229 18.6277 5.17761 18.3827 5.07612C18.3411 5.05888 18.2542 5.03227 18.0262 5.01671Z" fill="#801ED7"/>
</svg>
